src/assets/icons/svg/suitcase.svg

<svg width="24" height="24" viewBox="0 0 24 24" fill="none" xmlns="http://www.w3.org/2000/svg">
<path d="M23.0625 15.5633C23.5803 15.5633 24 15.1436 24 14.6258V8.43835C24 6.3706 22.3177 4.6884 20.25 4.6884H16.2153V3.46613C16.2153 2.04549 15.0595 0.88974 13.6389 0.88974H10.3611C8.94047 0.88974 7.78472 2.04549 7.78472 3.46613V4.68835H3.75C1.68225 4.68835 0 6.3706 0 8.43835V19.3602C0 21.428 1.68225 23.1102 3.75 23.1102H20.25C22.3177 23.1102 24 21.428 24 19.3602C24 18.8424 23.5803 18.4227 23.0625 18.4227C22.5447 18.4227 22.125 18.8424 22.125 19.3602C22.125 20.3941 21.2839 21.2352 20.25 21.2352H3.75C2.71613 21.2352 1.875 20.3941 1.875 19.3602V12.7022H11.1094V14.1102C11.1094 14.628 11.5291 15.0477 12.0469 15.0477C12.5647 15.0477 12.9844 14.628 12.9844 14.1102V12.7022H22.125V14.6258C22.125 15.1436 22.5447 15.5633 23.0625 15.5633ZM9.65972 3.46613C9.65972 3.07936 9.97434 2.76474 10.3611 2.76474H13.6389C14.0257 2.76474 14.3403 3.07936 14.3403 3.46613V4.68835H9.65972V3.46613ZM1.875 10.8273V8.4384C1.875 7.40452 2.71613 6.5634 3.75 6.5634H20.25C21.2839 6.5634 22.125 7.40452 22.125 8.4384V10.8273H1.875Z" fill="black"/>
</svg>

<?xml version="1.0" encoding="iso-8859-1"?>
<!-- Generator: Adobe Illustrator 23.1.0, SVG Export Plug-In . SVG Version: 6.00 Build 0)  -->
<svg version="1.1" id="&#x421;&#x43B;&#x43E;&#x439;_1"
	 xmlns="http://www.w3.org/2000/svg" xmlns:xlink="http://www.w3.org/1999/xlink" x="0px" y="0px" viewBox="0 0 24 24"
	 style="enable-background:new 0 0 24 24;" xml:space="preserve">
<path d="M23.063,15.563c0.518,0,0.938-0.42,0.938-0.938V8.438c0-2.068-1.682-3.75-3.75-3.75h-4.035V3.466
	c0-1.421-1.156-2.576-2.576-2.576h-3.278c-1.421,0-2.576,1.156-2.576,2.576v1.222H3.75C1.682,4.688,0,6.371,0,8.438V19.36
	c0,2.068,1.682,3.75,3.75,3.75h16.5c2.068,0,3.75-1.682,3.75-3.75c0-0.518-0.42-0.938-0.938-0.938s-0.938,0.42-0.938,0.938
	c0,1.034-0.841,1.875-1.875,1.875H3.75c-1.034,0-1.875-0.841-1.875-1.875v-6.658h9.234v1.408c0,0.518,0.42,0.938,0.938,0.938
	c0.518,0,0.938-0.42,0.938-0.938v-1.408h9.141v1.924C22.125,15.144,22.545,15.563,23.063,15.563z M9.66,3.466
	c0-0.387,0.315-0.701,0.701-0.701h3.278c0.387,0,0.701,0.315,0.701,0.701v1.222H9.66V3.466z M1.875,10.827V8.438
	c0-1.034,0.841-1.875,1.875-1.875h16.5c1.034,0,1.875,0.841,1.875,1.875v2.389H1.875z"/>
</svg>
